X: 23993
T: Loftus Jones
R: reel
M: 4/4
K: Gmajor
|:B2|g4 f2 e2|d2 c2 BcdB|cBAF G2 z2|BcBA G2 A2|
Bc d2 cd e2|d2 cB cBAG|FGFE D2 z2|GAGF E2 c2|
dcdB cBcA|G2 D2 E2 F2|G2 E2 F2 G2|A2 F2 G2 A2|B2 G2 A2 B2|
c4 d2 B/B/B|cBAG FGAF|G2 DC B,2 D2|1 G4- G2:|2 G4- G3||
|:B|A2 F2 G2 E2|F2 D2 E3 F|G2 A2 F2 B2|E4 F2 ED|
B3 c BA- Az|GABc B3 A|GABc dcBA|G2 F2 E4|
B,EGE B,EGE|DFAF DFAF|EGBE EGBE|FAAA FAFA|
GBBB GBGB|GBGB GBGB|ef g2 f2 gf|e4 edef|
gbgb fafa|ecec dcdB|cBcA BAGB|AGFE DEFD|
G2 DC B,DGB|AGFE D2 dB|cBAG FGAF|1 GDB,D G3:|2 GDB,D G2||

